X: 20072
M: C
L: 1/8
K: Bb
fB e/d/c/B/ fBdB | cF B/A/G/F/ cFAF |
fB e/d/c/B/ fBdB | FdAc BB,-B,B |\
fB e/d/c/B/ fBdB | cF B/A/G/F/ cFAF |\
fBgB aBbB | dB d/c/B/A/ BB,B, |]


